_site/icons/copy.svg

<svg clip-rule="evenodd" fill-rule="evenodd" height="24" stroke-linecap="round" stroke-linejoin="round" width="24" xmlns="http://www.w3.org/2000/svg"><path d="m11.5 16.5h-6c-1.097 0-2-.903-2-2v-9c0-1.097.903-2 2-2h9c1.097 0 2 .903 2 2v10" fill="#16a085" fill-rule="nonzero"/><g stroke="#000" stroke-width="2"><path d="m6.5 16.5h-1c-1.097 0-2-.903-2-2v-9c0-1.097.903-2 2-2h9c1.097 0 2 .903 2 2v1" fill="#16a085" fill-rule="nonzero"/><path d="m20.5 9.5v9c0 1.104-.896 2-2 2h-9c-1.104 0-2-.896-2-2v-9c0-1.104.896-2 2-2h9c1.104 0 2 .896 2 2z" fill="#0cddb4"/></g></svg>

<?xml version="1.0" encoding="UTF-8" standalone="no"?><!DOCTYPE svg PUBLIC "-//W3C//DTD SVG 1.1//EN" "http://www.w3.org/Graphics/SVG/1.1/DTD/svg11.dtd"><svg width="24px" height="24px" version="1.1" xmlns="http://www.w3.org/2000/svg" xmlns:xlink="http://www.w3.org/1999/xlink" xml:space="preserve" xmlns:serif="http://www.serif.com/" style="fill-rule:evenodd;clip-rule:evenodd;stroke-linecap:round;stroke-linejoin:round;"><path d="M11.5,16.5L5.5,16.5C4.403,16.5 3.5,15.597 3.5,14.5L3.5,5.5C3.5,4.403 4.403,3.5 5.5,3.5L14.5,3.5C15.597,3.5 16.5,4.403 16.5,5.5L16.5,15.5" style="fill:rgb(22,160,133);fill-rule:nonzero;"/><path d="M6.5,16.5L5.5,16.5C4.403,16.5 3.5,15.597 3.5,14.5L3.5,5.5C3.5,4.403 4.403,3.5 5.5,3.5L14.5,3.5C15.597,3.5 16.5,4.403 16.5,5.5L16.5,6.5" style="fill:rgb(22,160,133);fill-rule:nonzero;stroke:black;stroke-width:2px;"/><path d="M20.5,9.5L20.5,18.5C20.5,19.604 19.604,20.5 18.5,20.5L9.5,20.5C8.396,20.5 7.5,19.604 7.5,18.5L7.5,9.5C7.5,8.396 8.396,7.5 9.5,7.5L18.5,7.5C19.604,7.5 20.5,8.396 20.5,9.5Z" style="fill:rgb(12,221,180);stroke:black;stroke-width:2px;"/></svg>
